src/assets/images/icons/logo-horizontal.svg

<svg width="597" height="135" viewBox="0 0 597 135" fill="none" xmlns="http://www.w3.org/2000/svg">
<path d="M169.22 66.1682C198.11 96.9182 167.85 144.268 127.21 133.348C111.5 129.128 103.3 114.688 91.7198 104.768C77.9898 116.568 67.7098 132.568 48.1098 134.648C5.3798 139.178 -16.8202 89.3982 16.1698 61.6282C37.1098 43.9982 67.3898 51.8682 81.4398 73.8782L68.9998 86.1582C64.3498 82.1982 61.6298 77.1282 56.2498 73.5882C32.9398 58.2482 8.10981 87.3582 23.4398 107.558C32.5698 119.588 48.5998 119.758 59.8098 110.488C76.3798 96.7782 91.0298 76.7282 107.53 62.7782C125.76 47.3682 152.79 48.6882 169.21 66.1682H169.22ZM132.27 69.5882C121.08 71.1082 112.44 84.3982 104.08 91.1282C111.52 98.0782 120.31 112.128 129.94 115.578C151.64 123.368 170.52 100.608 158.1 81.0482C152.47 72.1782 142.66 68.1782 132.27 69.5782V69.5882Z" fill="#444CE7"/>
<path d="M131.68 0.738215C169.43 -5.13178 170.45 52.0182 132.76 47.3882C106.96 44.2182 106.56 4.64822 131.68 0.738215Z" fill="#444CE7"/>
<path d="M39.7399 0.74823C74.0099 -3.89177 78.0899 44.1982 47.0399 47.3782C14.7299 50.6882 11.6799 4.54823 39.7399 0.74823Z" fill="#444CE7"/>
<path d="M223.768 12.9621L240.008 74.2121L255.748 13.0221L273.498 12.9621L288.598 71.9021L304.498 12.8921L323.868 12.9121L298.928 99.5921L279.398 99.6121L264.588 41.2521L248.408 99.1021C247.978 99.7321 247.328 99.6221 246.698 99.7021C243.638 100.082 234.658 100.082 231.598 99.7021C230.958 99.6221 230.308 99.7421 229.888 99.1021L204.178 13.1621C203.928 11.4521 207.278 12.8921 208.468 12.9321C213.548 13.1221 218.688 12.6921 223.758 12.9621H223.768Z" fill="#444CE7"/>
<path d="M456.298 12.9121V59.7621L482.038 33.7321H500.828L472.498 64.1021L500.828 99.6721H480.878L458.018 70.4721L456.298 69.5921V99.6721H439.528V12.9121H456.298Z" fill="#444CE7"/>
<path d="M548.538 33.7322L564.728 78.8522L579.188 33.7322H596.828C596.978 35.4922 596.198 37.0522 595.678 38.6522C588.898 59.5322 580.078 83.5022 571.818 103.862C565.458 119.532 555.438 126.582 538.108 121.092L537.838 109.502C546.018 110.602 555.208 106.752 555.758 97.7022L531.458 36.9422L530.908 33.7322H548.548H548.538Z" fill="#444CE7"/>
<path d="M348.028 34.4721C394.578 28.9021 398.088 99.1921 354.798 101.392C312.078 103.562 310.468 38.9621 348.028 34.4721ZM351.488 48.9121C330.378 51.4221 334.508 93.1921 357.538 86.2021C375.518 80.7521 370.988 46.5921 351.488 48.9121Z" fill="#444CE7"/>
<path d="M508.928 99.6721V12.9121H524.828C525.028 12.9121 525.468 11.8821 526.278 13.2021V98.8121L525.408 99.6821H508.928V99.6721Z" fill="#444CE7"/>
<path d="M410.038 33.7321V43.5621C411.888 41.6121 412.998 39.2021 415.228 37.4721C419.648 34.0421 425.458 33.5521 430.858 33.7221V49.9221C424.048 49.5421 416.738 50.1121 412.818 56.4621C411.928 57.9121 410.038 63.2221 410.038 64.6721V99.6621H393.268V33.7221H410.038V33.7321Z" fill="#444CE7"/>
</svg>

<svg xmlns="http://www.w3.org/2000/svg" width="597" height="135" fill="none" viewBox="0 0 597 135"><path fill="#444ce7" d="M169.22 66.168c28.89 30.75-1.37 78.1-42.01 67.18-15.71-4.22-23.91-18.66-35.49-28.58-13.73 11.8-24.01 27.8-43.61 29.88-42.73 4.53-64.93-45.25-31.94-73.02 20.94-17.63 51.22-9.76 65.27 12.25L69 86.158c-4.65-3.96-7.37-9.03-12.75-12.57-23.31-15.34-48.14 13.77-32.81 33.97 9.13 12.03 25.16 12.2 36.37 2.93 16.57-13.71 31.22-33.76 47.72-47.71 18.23-15.41 45.26-14.09 61.68 3.39zm-36.95 3.42c-11.19 1.52-19.83 14.81-28.19 21.54 7.44 6.95 16.23 21 25.86 24.45 21.7 7.79 40.58-14.97 28.16-34.53-5.63-8.87-15.44-12.87-25.83-11.47z"/><path fill="#444ce7" d="M131.68.738c37.75-5.87 38.77 51.28 1.08 46.65-25.8-3.17-26.2-42.74-1.08-46.65M39.74.748c34.27-4.64 38.35 43.45 7.3 46.63-32.31 3.31-35.36-42.83-7.3-46.63M223.768 12.962l16.24 61.25 15.74-61.19 17.75-.06 15.1 58.94 15.9-59.01 19.37.02-24.94 86.68-19.53.02-14.81-58.36-16.18 57.85c-.43.63-1.08.52-1.71.6-3.06.38-12.04.38-15.1 0-.64-.08-1.29.04-1.71-.6l-25.71-85.94c-.25-1.71 3.1-.27 4.29-.23 5.08.19 10.22-.24 15.29.03zM456.298 12.912v46.85l25.74-26.03h18.79l-28.33 30.37 28.33 35.57h-19.95l-22.86-29.2-1.72-.88v30.08h-16.77v-86.76zM548.538 33.732l16.19 45.12 14.46-45.12h17.64c.15 1.76-.63 3.32-1.15 4.92-6.78 20.88-15.6 44.85-23.86 65.21-6.36 15.67-16.38 22.72-33.71 17.23l-.27-11.59c8.18 1.1 17.37-2.75 17.92-11.8l-24.3-60.76-.55-3.21h17.64zM348.028 34.472c46.55-5.57 50.06 64.72 6.77 66.92-42.72 2.17-44.33-62.43-6.77-66.92m3.46 14.44c-21.11 2.51-16.98 44.28 6.05 37.29 17.98-5.45 13.45-39.61-6.05-37.29M508.928 99.672v-86.76h15.9c.2 0 .64-1.03 1.45.29v85.61l-.87.87h-16.48z"/><path fill="#444ce7" d="M410.038 33.732v9.83c1.85-1.95 2.96-4.36 5.19-6.09 4.42-3.43 10.23-3.92 15.63-3.75v16.2c-6.81-.38-14.12.19-18.04 6.54-.89 1.45-2.78 6.76-2.78 8.21v34.99h-16.77v-65.94h16.77z"/></svg>
